NotoEmoji/emoji_u1f50d.svg

<svg enable-background="new 0 0 128 128" viewBox="0 0 128 128" xmlns="http://www.w3.org/2000/svg" xmlns:xlink="http://www.w3.org/1999/xlink"><linearGradient id="a"><stop offset=".2853" stop-color="#fff"/><stop offset="1" stop-color="#fff" stop-opacity="0"/></linearGradient><linearGradient id="b" gradientUnits="userSpaceOnUse" x1="20.3852" x2="36.781" xlink:href="#a" y1="18.0245" y2="44.6159"/><linearGradient id="c" gradientUnits="userSpaceOnUse" x1="58.9514" x2="63.0853" xlink:href="#a" y1="95.509" y2="52.792"/><path d="m47.63 12.67c19.85 0 34.8 14.95 34.8 34.8s-16.15 36.01-36 36.01-34.8-14.95-34.8-34.8 16.15-36.01 36-36.01" fill="#81d4fa" opacity=".6"/><path d="m47.63 12.67c19.85 0 34.8 14.95 34.8 34.8s-16.15 36.01-36 36.01-34.8-14.95-34.8-34.8 16.15-36.01 36-36.01m-29.61 4.1c-19.68 19.68-10.02 48.43-2.33 56.28 14.23 14.52 40.83 22.79 60.73 2.88 18.43-18.43 11.81-41.8-1.17-56.09-8.62-9.48-37.56-22.74-57.23-3.07z" fill="#616161"/><path d="m99.78 90.86-8.33 8.38-19.62-19.8s-1.66-3.19 1.62-6.47 6.71-1.91 6.71-1.91z" fill="#bdbdbd"/><path d="m88.5 76.96c-1.13-.9-5.05-3-9.36 1.28-4.3 4.28-2.55 7.66-1.7 8.91 0 0 30.53 33.87 31.92 35.27 2.05 2.05 6.26.3 10.16-3.6s5.78-7.67 3.58-9.87c-1.79-1.79-33.47-31.09-34.6-31.99z" fill="#616161"/><path d="m43.92 8.64c19.85 0 36 16.15 36 36s-16.15 36-36 36-36-16.15-36-36 16.15-36 36-36m0-3.96c-22.06 0-39.95 17.89-39.95 39.95s17.89 39.95 39.95 39.95 39.95-17.88 39.95-39.95-17.89-39.95-39.95-39.95z" fill="#bdbdbd"/><ellipse cx="117.01" cy="116.31" fill="#424242" rx="9.25" ry="3.56" transform="matrix(.7071 -.7071 .7071 .7071 -47.9727 116.8012)"/><path d="m26.52 23.6c-6.52 6.83-9.08 14.39-9.14 22.79-.02 3.09.41 6.36 2.32 8.78s5.7 3.57 8.2 1.76c1.66-1.2 2.35-3.29 3.16-5.16 1.24-2.87 2.97-5.54 5.1-7.84 2.66-2.88 5.92-5.18 8.46-8.16s4.35-7.01 3.33-10.8c-1.01-3.71-4.67-6.33-8.48-6.76s-9.19 1.45-12.95 5.39z" fill="url(#b)"/><path d="m64.05 75.78c0-.46.22-.88.59-1.15 1.95-1.39 7.2-4.64 11.73-13.28 2.63-5.04 3.63-9.24 3.91-10.74.79-4.24 3.01-2.82 2.7-.08-.36 3.12-3.07 16.85-16.68 26.38-.95.67-2.25.03-2.25-1.13z" fill="#fff" opacity=".59"/><path d="m26.39 11.39c-.13 1.3-2.34 2.53-2.73 2.78-2.02 1.3-7.02 3.85-11.59 12.47-2.13 4.01-3.66 8.14-4.18 10.19-.85 3.35-3.14 2.68-2.7-.05.5-3.1 3.85-16.69 17.88-25.58.99-.62 3.49-1.53 3.32.19z" fill="#fff" opacity=".59"/><path d="m55.92 73.93c-4.45.81-5.77-1.05-5.21-2.9.44-1.47 2.08-2.1 3.55-2.54 7.84-2.35 14.46-8.84 19.27-15.28.11 5.59-1.36 8.83-4.05 12.15-2.63 3.23-6.72 7.32-13.56 8.57z" fill="url(#c)"/></svg>

<?xml version="1.0" encoding="utf-8"?>
<!-- Generator: Adobe Illustrator 25.2.3, SVG Export Plug-In . SVG Version: 6.00 Build 0)  -->
<svg version="1.1" id="_x31_" xmlns="http://www.w3.org/2000/svg" xmlns:xlink="http://www.w3.org/1999/xlink" x="0px" y="0px"
	 viewBox="0 0 128 128" style="enable-background:new 0 0 128 128;" xml:space="preserve">
<g>
	<g>
		<path style="opacity:0.6;fill:#81D4FA;" d="M47.63,12.67c19.85,0,34.8,14.95,34.8,34.8S66.28,83.48,46.43,83.48
			s-34.8-14.95-34.8-34.8S27.78,12.67,47.63,12.67"/>
		<path style="fill:#616161;" d="M47.63,12.67c19.85,0,34.8,14.95,34.8,34.8S66.28,83.48,46.43,83.48s-34.8-14.95-34.8-34.8
			S27.78,12.67,47.63,12.67 M18.02,16.77C-1.66,36.45,8,65.2,15.69,73.05c14.23,14.52,40.83,22.79,60.73,2.88
			c18.43-18.43,11.81-41.8-1.17-56.09C66.63,10.36,37.69-2.9,18.02,16.77z"/>
		<path style="fill:#BDBDBD;" d="M99.78,90.86l-8.33,8.38l-19.62-19.8c0,0-1.66-3.19,1.62-6.47c3.28-3.28,6.71-1.91,6.71-1.91
			L99.78,90.86z"/>
		<path style="fill:#616161;" d="M88.5,76.96c-1.13-0.9-5.05-3-9.36,1.28c-4.3,4.28-2.55,7.66-1.7,8.91c0,0,30.53,33.87,31.92,35.27
			c2.05,2.05,6.26,0.3,10.16-3.6c3.9-3.9,5.78-7.67,3.58-9.87C121.31,107.16,89.63,77.86,88.5,76.96z"/>
		<path style="fill:#BDBDBD;" d="M43.92,8.64c19.85,0,36,16.15,36,36s-16.15,36-36,36s-36-16.15-36-36S24.07,8.64,43.92,8.64
			 M43.92,4.68c-22.06,0-39.95,17.89-39.95,39.95s17.89,39.95,39.95,39.95S83.87,66.7,83.87,44.63S65.98,4.68,43.92,4.68L43.92,4.68
			z"/>
		
			<ellipse transform="matrix(0.7071 -0.7071 0.7071 0.7071 -47.9727 116.8012)" style="fill:#424242;" cx="117.01" cy="116.31" rx="9.25" ry="3.56"/>
		<linearGradient id="SVGID_1_" gradientUnits="userSpaceOnUse" x1="20.3852" y1="18.0245" x2="36.781" y2="44.6159">
			<stop  offset="0.2853" style="stop-color:#FFFFFF"/>
			<stop  offset="1" style="stop-color:#FFFFFF;stop-opacity:0"/>
		</linearGradient>
		<path style="fill:url(#SVGID_1_);" d="M26.52,23.6c-6.52,6.83-9.08,14.39-9.14,22.79c-0.02,3.09,0.41,6.36,2.32,8.78
			c1.91,2.42,5.7,3.57,8.2,1.76c1.66-1.2,2.35-3.29,3.16-5.16c1.24-2.87,2.97-5.54,5.1-7.84c2.66-2.88,5.92-5.18,8.46-8.16
			c2.54-2.98,4.35-7.01,3.33-10.8c-1.01-3.71-4.67-6.33-8.48-6.76S30.28,19.66,26.52,23.6z"/>
		<g style="opacity:0.59;">
			<path style="fill:#FFFFFF;" d="M64.05,75.78L64.05,75.78c0-0.46,0.22-0.88,0.59-1.15c1.95-1.39,7.2-4.64,11.73-13.28
				C79,56.31,80,52.11,80.28,50.61c0.79-4.24,3.01-2.82,2.7-0.08c-0.36,3.12-3.07,16.85-16.68,26.38
				C65.35,77.58,64.05,76.94,64.05,75.78z"/>
		</g>
		<g style="opacity:0.59;">
			<path style="fill:#FFFFFF;" d="M26.39,11.39c-0.13,1.3-2.34,2.53-2.73,2.78c-2.02,1.3-7.02,3.85-11.59,12.47
				c-2.13,4.01-3.66,8.14-4.18,10.19c-0.85,3.35-3.14,2.68-2.7-0.05c0.5-3.1,3.85-16.69,17.88-25.58
				C24.06,10.58,26.56,9.67,26.39,11.39z"/>
		</g>
	</g>
	<linearGradient id="SVGID_2_" gradientUnits="userSpaceOnUse" x1="58.9514" y1="95.509" x2="63.0853" y2="52.792">
		<stop  offset="0.2853" style="stop-color:#FFFFFF"/>
		<stop  offset="1" style="stop-color:#FFFFFF;stop-opacity:0"/>
	</linearGradient>
	<path style="fill:url(#SVGID_2_);" d="M55.92,73.93c-4.45,0.81-5.77-1.05-5.21-2.9c0.44-1.47,2.08-2.1,3.55-2.54
		c7.84-2.35,14.46-8.84,19.27-15.28c0.11,5.59-1.36,8.83-4.05,12.15C66.85,68.59,62.76,72.68,55.92,73.93z"/>
</g>
</svg>
